icons/qrcode.svg

<svg width="24" height="24" viewBox="0 0 24 24" fill="none" xmlns="http://www.w3.org/2000/svg">
<path fill-rule="evenodd" clip-rule="evenodd" d="M3 4C3 3.44772 3.44772 3 4 3H10C10.5523 3 11 3.44772 11 4V10C11 10.5523 10.5523 11 10 11H4C3.44772 11 3 10.5523 3 10V4ZM5 5V9H9V5H5ZM13 4C13 3.44772 13.4477 3 14 3H20C20.5523 3 21 3.44772 21 4V10C21 10.5523 20.5523 11 20 11H14C13.4477 11 13 10.5523 13 10V4ZM15 5V9H19V5H15ZM7 6C7.55228 6 8 6.44772 8 7V7.01C8 7.56228 7.55228 8.01 7 8.01C6.44772 8.01 6 7.56228 6 7.01V7C6 6.44772 6.44772 6 7 6ZM17 6C17.5523 6 18 6.44772 18 7V7.01C18 7.56228 17.5523 8.01 17 8.01C16.4477 8.01 16 7.56228 16 7.01V7C16 6.44772 16.4477 6 17 6ZM3 14C3 13.4477 3.44772 13 4 13H10C10.5523 13 11 13.4477 11 14V20C11 20.5523 10.5523 21 10 21H4C3.44772 21 3 20.5523 3 20V14ZM5 15V19H9V15H5ZM13 14C13 13.4477 13.4477 13 14 13H17C17.5523 13 18 13.4477 18 14C18 14.5523 17.5523 15 17 15H15V17C15 17.5523 14.5523 18 14 18C13.4477 18 13 17.5523 13 17V14ZM20 13C20.5523 13 21 13.4477 21 14V14.01C21 14.5623 20.5523 15.01 20 15.01C19.4477 15.01 19 14.5623 19 14.01V14C19 13.4477 19.4477 13 20 13ZM7 16C7.55228 16 8 16.4477 8 17V17.01C8 17.5623 7.55228 18.01 7 18.01C6.44772 18.01 6 17.5623 6 17.01V17C6 16.4477 6.44772 16 7 16ZM16 17C16 16.4477 16.4477 16 17 16H20C20.5523 16 21 16.4477 21 17V20C21 20.5523 20.5523 21 20 21C19.4477 21 19 20.5523 19 20V18H17C16.4477 18 16 17.5523 16 17ZM13 20C13 19.4477 13.4477 19 14 19H17C17.5523 19 18 19.4477 18 20C18 20.5523 17.5523 21 17 21H14C13.4477 21 13 20.5523 13 20Z" fill="black"/>
</svg>

<svg
  width="24"
  height="24"
  viewBox="0 0 24 24"
  xmlns="http://www.w3.org/2000/svg"
>
  <path
    fill-rule="evenodd"
    clip-rule="evenodd"
    d="M3 4a1 1 0 0 1 1-1h6a1 1 0 0 1 1 1v6a1 1 0 0 1-1 1H4a1 1 0 0 1-1-1V4zm2 1v4h4V5H5zm8-1a1 1 0 0 1 1-1h6a1 1 0 0 1 1 1v6a1 1 0 0 1-1 1h-6a1 1 0 0 1-1-1V4zm2 1v4h4V5h-4zM7 6a1 1 0 0 1 1 1v.01a1 1 0 0 1-2 0V7a1 1 0 0 1 1-1zm10 0a1 1 0 0 1 1 1v.01a1 1 0 1 1-2 0V7a1 1 0 0 1 1-1zM3 14a1 1 0 0 1 1-1h6a1 1 0 0 1 1 1v6a1 1 0 0 1-1 1H4a1 1 0 0 1-1-1v-6zm2 1v4h4v-4H5zm8-1a1 1 0 0 1 1-1h3a1 1 0 1 1 0 2h-2v2a1 1 0 1 1-2 0v-3zm7-1a1 1 0 0 1 1 1v.01a1 1 0 1 1-2 0V14a1 1 0 0 1 1-1zM7 16a1 1 0 0 1 1 1v.01a1 1 0 1 1-2 0V17a1 1 0 0 1 1-1zm9 1a1 1 0 0 1 1-1h3a1 1 0 0 1 1 1v3a1 1 0 1 1-2 0v-2h-2a1 1 0 0 1-1-1zm-3 3a1 1 0 0 1 1-1h3a1 1 0 1 1 0 2h-3a1 1 0 0 1-1-1z"
  />
</svg>
